X:1
T:The Well-Tempered Clavier Book II - VII
T:BWV 876    (A = 415 Hz)
T:J. S. Bach
%%score { ( 1 2 5 6 ) | ( 3 4 ) }
L:1/8
Q:1/4=132
M:9/8
K:Eb
V:1 treble nm="Harp"
V:2 treble 
V:5 treble 
V:6 treble 
V:3 bass 
V:4 bass 
V:1
"^Allegro""^Praeludium""^Praeludium""^Praeludium" B3 z3 z Ge |{e} d3 z3 z FG | ACE DFB B,FA | %3
{A} G3 z3[K:bass] z E,D, | E,G,F, G,B,A, B,_DG, | A,CB,[K:treble] CE_D EAC | DFE FAG AfA | %7
 GBA Bed egf | ged e6- | e3 z3 z =Ae | dBF GED CB=A | B3 z3 z B,=A, | B,DC DFE FAD | EGF GBA BeG | %14
 =AcB ced ec'e | dB=A Bdc dfe | [df]3 z3 z GF | G3 z3 z de | f3 z z f =B2 c | =B3 z =B,D FED | %20
 EGc edc z Ec | FAc edc z Gc | A=Bc edc z FB | cGE C z z z3 | z ed ec=A F z2 | z FE FBc _d z z | %26
 z _dc dBG E z z | z E_D EAB c z z | z DA cBA z _DB | z CG BAG z CA | z B,A z AG z cE | %31
 z DC DB,=A, B,DF | AFE FDC DFA | cED B_DC A_CB, | z GF GED EGB | _dBA BGF GBd | fAG e_GF _d_FE | %37
 z cB cAG Ace | gB=A f_AG e_GF | z dc dB=A Bdf | ac=B g_B=A f_AG | z ed ec=B ceg | %42
 c'2 =b c'ga z ^fg | c'2 ^f gde z ^cd | bgd egc' b=ag | ^f/g/=ad edc Bc=A | Bdg b=ag z Bg | %47
 ceg b=ag z dg | e^fg B=AG z c^F | GBd g z z B/4A/4B/- B2- | B_dc dBG =E2 B- | BAG Acf- f2 z | %52
 z ag afd B2 a- | agf geB GB_d- | dcB AG F2 E_G- | GFE DCB, z3 | z ED EB,A, z3 | z FE FDB, z3 | %58
 z GF GEC z3 | z AG AFD z3 | B3 z3 z Ge |{e} d3 z3 z FG | ACE DFB B,FA | GB,_D CEA A,EG | %64
 FA,C B,DG G,DF | EG,B, A,CF F,CE | D3 z z [fa] [eg]2 z | z z f e3 e/4d/4e/4d/4e/4d/4e/4d/4 e | %68
 eBA BGF GED | E[I:staff +1]B,A, B,G,F, G,E,D, |[I:staff -1] z9 | %71
[M:2/2][Q:1/4=180]"^Fuga""^Fuga""^Fuga" z8 | z8 | z8 | z8 | z8 | z8 | B,8 | E4 z2 E2 | D2 G4 F2 | %80
 E2 ED E2 G2 | C2 F4 E2 | D2 DC D2 F2 | B,2 B,A, B,2 D2 | E8 | B4 z2 A2 | G2 c4 B2 | A2 AG A2 c2 | %88
 F2 B4 A2 | G2 GF G2 B2 | E2 FE F2 A2 | B8 | e4 z2 e2 | d2 g4 f2 | e2 ed e2 g2 | c2 f4 e2 | %96
 d2 dc d2 f2 | B2 B=A B2 d2 | G2 =A2 B4- | B4 =A4 | B2 de f2 d2 | B2 ef g2 e2 | f2 ed c2 d2 | %103
 e2 z2 z4 | z8 | z8 |[I:staff +1] B,2 B,A, B,2 D2 |[I:staff -1] B8 | e8 | b4 z2 a2 | g2 c'4 b2 | %111
 a2 ag a2 c'2 | f2 b4 a2 | g2 gf g2 b2 | e2 ed e2 g2 | c2 de f4- | f4 edef | d2 g4 f2 | %118
 =e2 c2 f4- | f4 e4- | e4 dcde | c2 f4 e2 | d2 B2 e4- | e4 _d4- | d2 c2 B4 | A4 z4 | z8 | z8 | z8 | %129
 B8 | e4 z2 e2 | d2 g4 f2 | e2 ed e2 g2 | c2 f4 e2 | d2 dc d2 f2 | B2 e2 _d4- | d2 c2 B4- | %137
 B2 AG A4- | A4 _G4 | F8 | !fermata!E8 |] %141
V:2
 G3 z3 z G2 | F3 z3 z3 | z3 z3 B,3 | [B,E]3 z3[K:bass] z3 | z z B,, E,2 F, G,2 z | %5
 x3[K:treble] x6 | x9 | x9 | z3 z cB c3- | c3 z3 z3 | x9 | D3 z3 z3 | x9 | x9 | x9 | x9 | %16
 A3 z3 z ED | E3 z3 z FG | A3 z z A A2 [FA] | [DA]3 z3 z3 | x9 | x9 | x9 | x9 | x9 | %25
 z3 z B2- B z z | x9 | z3 z A2- A z z | x9 | x9 | x9 | x9 | x9 | x9 | x9 | x9 | x9 | x9 | x9 | x9 | %40
 x9 | x9 | x9 | x9 | x9 | x9 | x9 | x9 | x9 | x9 | x9 | z3 z3 a2 z | x9 | x9 | x9 | %55
 z3 z3[I:staff +1] A,G,F, | x9 | x9 | x9 | x9 |[I:staff -1] [EG]3 z3 z G2 | F3 z3 z3 | x9 | x9 | %64
 x9 | x9 | B,3 z z B B2 z | z z c B6 | x9 | x9 | x9 |[M:2/2] x8 | x8 | x8 | x8 | x8 | x8 | x8 | %78
 x8 | x8 | x8 | x8 | x8 | x8 | G,2 A,B, C2 B,C | D2 F2 B,2 D2 | E8- | E4 D2 C2 | D3 E/D/ C2 D2 | %89
 x8 | x8 | D2 E4 D2 | C2 G2 c4- | c2 B=A B4- | B4 =A2 G2 | =A3 B/A/ G2 A2 | B4 z2 F2 | G4 z2 D2 | %98
 E2 F2 G4 | F6 E2 | D2 FG A4- | A2 GA B2 G2 | F2 B2 A2 B2 | E2 z2 z4 | C2 F4 E2 | D2 DC D2 F2 | %106
 x8 | x8 | e4 z2 e2 | d2 g4 f2 | e2 ed e2 g2 | c2 f4 e2 | d2 dc d2 f2 | B2 BA B2 d2 | %114
 G2 =A=B c2 B2 | c4- c=Bcd | =B2 G2 c4- | c4 B4- | B4 AGAB | G2 c4 B2 | =A2 F2 B4- | B4 A4- | %122
 A4 GFGA | F2 B4 A2 | B2 A4 G2- | G2 FG A4- | A2 F2 B2 A2 | G2 GF G2 B2 | E2 A4 G2 | F2 FE F2 GF | %130
 E2 GF G2 =AF | F2 B=A B2 d2 | e2 c2 G4 | A2 A4 G2 | A2 F2 B4- | B2 z2 z2 A2 | G4 z2 F2 | E6 DC | %138
 D2 B,2 E4- | E4 D4 | B,8 |] %141
V:3
 z ED EB,G, E, z2 | z B,=A, B,F,D, B,, z z | F, z z B, z z B,, z z | z E,D, E,B,,G,, E,, z z | %4
 z3 z z E,, E,2 _D, | C,2 E, A,,2 B,, C,2 A,, | F,2 A, D,2 E, F,2 D, | E,2 F, G,2 B, G,2 D, | %8
 E,2 G, C,2 D, E,/D,/C,/D,/E, | F,, FE FC=A, F, z z | B, z z E, z z F, z z | %11
 z B,=A, B,F,D, B,, z2 | z B,,=A,, B,,D,C, D,F,A, | G,B,A, B,G,F, G,B,D | CED ECB, CB,=A, | %15
 B,[I:staff -1]DC DFE FAG |[I:staff +1] z B,=A, B,F,D, B,, z z | z B,A, B,G,E, B,, z z | %18
 z B,,=A,, B,,D,C, D,F,E, | F,A,G, A, z z =B,, z z | C, z z C z z B, z z | A, z z A,, z z E, z z | %22
 F, z z ^F, z z G, z z | C,4 E,G, B,=A,G, | =A, z z z3 z CF, | B, z z z3 z A,F, | %26
 G, z z z3 z B,E, | A, z z z3 z G,E, | F, z z z3 G, z z | =E, z z z3 F, z z | %30
 D, z z E, z z =A,, z z | B,, z z z D,C, D,F,A, | B,,D,C, D,F,E, F,D,B,, | z z F, G,,2 E, F,,2 D, | %34
 E,, z z z G,F, G,B,_D | E,G,F, G,B,A, B,G,E, | z z B, C,2 A, B,,2 G, | A,,2 z z CB, C z z | %38
 z z C, D2 B,, C2 =A,, | B,,2 z z DC D z z | z z D, E2 C, D2 =B,, | C,2 z z ED E z z | %42
 z[I:staff -1] AG AEC GDB, | ^FC=A, E[I:staff +1]B,G,[I:staff -1] B,[I:staff +1]=A,^F, | %44
 G, z z C, z z ^C, z z | D, z z z z D,, =E,,2 ^F,, | G,, z z G, z z F, z z | %47
 E, z z E,, z z B,, z z | C, z z ^C, z z D, z z | G,,3- G,,B,,D, F,=E,D, | =E, z2 z4 G,C, | %51
 F,2 z z3 z C,E, | D, z2 z4 DB, | E2 z z4 G,E, | A,E,_D, C,B,,A,, G,,C,B,, | %55
 =A,,B,,/A,,/G,,/A,,/ B,, z z z3 | G, z z z3 G,F,E, | D, z z z3 A,G,F, | E, z z z3 B,A,G, | %59
 F, z z z3 CB,A, | G,B,A, B,G,E, B,, z2 | z B,=A, B,F,D, B,, z2 | z2 G, F,2 E, D,2 B,, | %63
 E,,2 F, E,2 _D, C,2 A,, | D,,2 E, D,2 C, B,,2 G,, | C,,2 _D, C,2 B,, A,,2 G,, | %66
 F,3 z z D, E,F,/G,/A,/B,/ | C/D/EA, B,3 B,,3 | E,3 z3 z3 | E,3 z3 z3 | E,/4D,/4E,/- E,2 E,,3 z3 | %71
[M:2/2] E,8 | B,4 z2 A,2 | G,2 C4 B,2 | A,2 A,G, A,2 C2 | F,2 B,4 A,2 | G,2 G,F, G,2 B,2 | %77
 E,2 E,D, E,2 G,2 | C,2 D,E, F,4 | B,,4 B,4- | B,4 =A,2 G,2 | =A,3 B,/A,/ G,2 A,2 | %82
 B,2 B,,2 B,2 A,2 | G,2 G,,2 G,2 F,2 | E,2 F,G, A,4- | A,2 G,F, G,2 B,2 | E,2 A,G, A,2 C2 | %87
 F,4- F,2 G,A, | B,8 |[I:staff -1] E2[I:staff +1] B,A, B,4- | B,2 A,G, A,4- | A,2 G,2 F,2 B,2 | %92
 G,4 F,4- | F,2 D,2 G,4- | G,2 CB, C4- | C3 D/C/ B,2 C2 | D4 z2 C2 | D4 z2 A,2 | B,2 C2 _D4 | %99
 C2 B,2 C4 | B,4 B,4 | E4 z2 E2 | D2 G4 F2 | B,2[I:staff -1] ED E2 G2 | %104
[I:staff +1] A,2 A,G, A,2 C2 | F,2 B,4 A,2 | G,2 G,F, G,2 B,2 | G,4[I:staff -1] G4- | %108
 G2 GF G2 =A2 | B2[I:staff +1] DC D2 F2 | G2 GF G4- | G2 C2 F4- | F2 FE F4- | F2 B,2 E2 z2 | %114
 C2 C,2 CB,A,G, | A,2 A,,2 A,2 G,F, | G,8- | G,F,G,A, G,F,=E,D, | C,8- | C,B,,C,_D, C,B,,=A,,G,, | %120
 F,,8- | F,,E,F,G, F,E,D,C, | B,,8- | B,,A,B,C B,4 | E4 z2 _D2 | C2[I:staff -1] F4 E2 | %126
 _D2 DC D2 F2 | B,2 E4 _D2 | C2 CB, C2[I:staff +1] E2 | A,2 A,G, A,2 B,A, | G,2 B,A, B,2 C2 | %131
 D2 DC D2[I:staff -1] F2 | B2 G2[I:staff +1] E4- | E2 CB, C2 E2 | F2 D2 G2 D2 | %135
 E2 z2 z2[I:staff -1] F2 | E4[I:staff +1] z2[I:staff -1] D2 | C6[I:staff +1] A,2 | F,4 z2 C2 | %139
 F,2 F,E, F,2 B,2 |[I:staff -1] G,8 |] %141
V:4
 x9 | x9 | x9 | x9 | z3 z z E,, E,,2 E,, | E,,2 z z z E,, E,,2 E,, | E,2 z z3 z z [E,,B,,] | %7
 [E,,B,,]2 z z3 z3 | x9 | x9 | x9 | x9 | z3 z z B,, B,,2 B,, | B,,2 z z z B,, B,, z B, | %14
 B,2 z z3 z z [B,,F,] | [B,,F,] z z z3 z3 | x9 | x9 | x9 | x9 | x9 | x9 | x9 | x9 | x9 | x9 | x9 | %27
 x9 | x9 | x9 | x9 | x9 | x9 | x9 | x9 | x9 | x9 | x9 | x9 | x9 | x9 | x9 | x9 | x9 | x9 | x9 | %46
 x9 | x9 | x9 | x9 | x9 | x9 | x9 | x9 | x9 | x9 | B,, z z z3 z3 | B,, z z z3 z3 | B,, z z z3 z3 | %59
 [B,,D,] z z z3 z3 | x9 | x9 | x9 | x9 | x9 | x9 | x9 | x9 | x9 | x9 | x9 |[M:2/2] x8 | x8 | x8 | %74
 x8 | x8 | x8 | x8 | x8 | x8 | x8 | x8 | x8 | x8 | x8 | x8 | x8 | x8 | x8 | E,6 D,2 | C,4 z2 F,2 | %91
 B,,8- | B,,4 =A,,4 | B,,4 z2 G,,2 | B,,4 z2 F,2 | F,4 z2 F,2 | B,2 F,2 B,2 =A,2 | %97
 G,2 D,2 G,2 F,2 | E,6 =E,2 | F,8 | B,,4 z4 | z4 E,4 | B,4 z2 A,2 | G,2 C4 B,2 | x8 | x8 | x8 | %107
 E,2 E,D, E,2 G,2 | C,4 C4 | B,2 B,A, B,2 D2 | E4 z2 =E2 | F2 F,=E, F,2 =A,2 | B,4 z2 D2 | %113
 E2 E,2 EDCB, | x8 | x8 | x8 | x8 | x8 | x8 | x8 | x8 | x8 | z4 B,A,G,F, | G,2 A,2 D,2 =E,2 | %125
 F,4- F,E,_D,C, | B,,4- B,,B,,C,_D, | E,4- E,E,,F,,G,, | A,,B,,C,_D, E,4- | E,4 D,4 | E,8 | %131
 B,4 z2 A,2 | G,2 C4 B,2 | A,2 A,2 A,2 C2 | F,2 B,4 A,2 | G,2 G,F, G,2 B,2 | E,2 E,D, E,2 G,2 | %137
 C,2 D,E, F,4 | B,,4 =A,,4 | B,,8 | !fermata!E,,8 |] %141
V:5
 x9 | x9 | x9 | x6[K:bass] x3 | x9 | x3[K:treble] x6 | x9 | x9 | x9 | x9 | x9 | x9 | x9 | x9 | x9 | %15
 x9 | x9 | x9 | x9 | x9 | x9 | x9 | x9 | x9 | x9 | z3 F3- F z z | x9 | z3 E3- E z z | x9 | x9 | %30
 x9 | x9 | x9 | x9 | x9 | x9 | x9 | x9 | x9 | x9 | x9 | x9 | x9 | x9 | x9 | x9 | x9 | x9 | x9 | %49
 x9 | x9 | z3 z c2- c2 z | x9 | x9 | x9 | x9 | x9 | x9 | x9 | x9 | x9 | x9 | x9 | x9 | x9 | x9 | %66
 x9 | z z A G3 F3 | x9 | x9 | x9 |[M:2/2] x8 | x8 | x8 | x8 | x8 | x8 | x8 | x8 | x8 | x8 | x8 | %82
 x8 | x8 | x8 | x8 | x8 | x8 | x8 | x8 | x8 | x8 | x8 | x8 | x8 | x8 | x8 | x8 | x8 | x8 | x8 | %101
 x8 | x8 | x8 | x8 | x8 | x8 | x8 | x8 | x8 | x8 | x8 | x8 | x8 | x8 | x8 | x8 | x8 | x8 | x8 | %120
 x8 | x8 | x8 | x8 | x8 | x8 | x8 | x8 | x8 | x8 | x8 | x8 | x8 | x8 | x8 | x8 | x8 | x8 | x8 | %139
 x8 | x8 |] %141
V:6
 x9 | x9 | x9 | x6[K:bass] x3 | x9 | x3[K:treble] x6 | x9 | x9 | x9 | x9 | x9 | x9 | x9 | x9 | x9 | %15
 x9 | x9 | x9 | x9 | x9 | x9 | x9 | x9 | x9 | x9 | x9 | x9 | x9 | x9 | x9 | x9 | x9 | x9 | x9 | %34
 x9 | x9 | x9 | x9 | x9 | x9 | x9 | x9 | x9 | x9 | x9 | x9 | x9 | x9 | x9 | x9 | x9 | z3 A3- A2 z | %52
 x9 | x9 | x9 | x9 | x9 | x9 | x9 | x9 | x9 | x9 | x9 | x9 | x9 | x9 | x9 | x9 | x9 | x9 | x9 | %71
[M:2/2] x8 | x8 | x8 | x8 | x8 | x8 | x8 | x8 | x8 | x8 | x8 | x8 | x8 | x8 | x8 | x8 | x8 | x8 | %89
 x8 | x8 | x8 | x8 | x8 | x8 | x8 | x8 | x8 | x8 | x8 | x8 | x8 | x8 | x8 | x8 | x8 | x8 | x8 | %108
 x8 | x8 | x8 | x8 | x8 | x8 | x8 | x8 | x8 | x8 | x8 | x8 | x8 | x8 | x8 | x8 | x8 | x8 | x8 | %127
 x8 | x8 | x8 | x8 | x8 | x8 | x8 | x8 | x8 | x8 | x8 | x8 | x8 | x8 |] %141

